X: 1
T: O'Sullivan's March - SP
P: piffero primo a0835S
O: trad
%R: jig, march
F: http://ancients.sudburymuster.org/mus/ssp/pdf/stkildaF.pdf
Z: 2019 John Chambers <jc:trillian.mit.edu>
M: 6/8
L: 1/8
K: A
E |\
AcB Bce | fec B2A | AcB c2B | cAA A2 :| a |\
f2a f2a | faf fec | efe ece | efc cBA |\
(dc)d ede |
fac B2A | AcB c2B | BAA A2 || E |\
(AB)c ecB |\
(ABc) c2B | (AB)c fec | ecB B2c |\
(AB)c ecB | cBc a3 |
gfe fec | ecB B2 || c |\
ecc acc | ecc e2f | ecc aga | fec B2(c/B/) |\
(AB)c ecB | cBc a3 | gfe fec | ecB B2 |]
